!!!OTL: Vater Unser.
!!!OTL-incipit: WENN DAS HERZ VOLL ANGST UND LEID
!!!COM: Schuster
!!!ARE: Europa, Mitteleuropa, Deutschland
!!!SCT: F1004
!!!TXL: @@DE
!!!YEM: Copyright 1995, estate of Helmut Schaffrath.
**kern	**text
*ICvox	*
*clefG2	*
*M4/4	*
*met(c)	*
*k[]	*
*C:	*
!LO:TX:a:t=Langſam.	!
!LO:TX:a:t=P:only the highest voice encoded:problem	!
{(4e	Wenn
16gL)	.
16fJ	.
16eL	das
16fJ	.
=1	=1
8aL	Herʒ
8gJ	.
8fL	voll
8eJ	.
4.cc/	Angſt
8cc/	und
=2	=2
(>4cc/	Leid,
4b/)}	.
{4dd	voll
4dd	von
=3	=3
8dd/L	Kümmerniß
8aJ	.
4a	.
4a	.
8b/L	ſich
8ccJ	.
=4	=4
4cc/	kränket,
4b/}	.
{(4e	Troſt-
16gL)	.
16fJ	.
16eL	-los
16fJ	.
=5	=5
8aL	in
8gJ	.
8fL	der
8eJ	.
4.cc/	Ein-
8cc/	-ſam-
=6	=6
(>4cc/	-keit,
4b/)}	.
{4dd	was
4dd	es
=7	=7
8dd/L	kränket,
8aJ	.
4a	.
4a	ü-
8b/L	-ber-
8ccJ	.
=8	=8
4cc/	-den-
4b/}	-ket
{4g	o
8aL	dann
8bJ	.
=9	=9
4cc/	ei-
8dd/L	-let
8eeJ	.
8gg/L	ʒum
8ffJ	.
8ff/L	Ge-
8eeJ	.
=10	=10
(4ee	-bet,
4dd)}	.
{4ee	fleht
4cc	ʒu
=11	=11
(>4cc/	Got-
8b/)	.
8a	-tes
8gL	Ma-
8ccJ	.
8b/L	-ie-
8ddJ	.
=12	=12
(>4dd/	-ſtät.
4cc/)}	.
==	==
!!!AGN: Erbauungs - Lied, religioes
!!!ONB: ESAC (Essen Associative Code) Database: FINK
!!!AMT: simple quadruple
!!!AIN: vox
!!!EED: Helmut Schaffrath
!!!EEV: 1.0
!!!RDF**kern: > = above
!!!GTL: Erbauungslieder
!!!source: Musikalischer Hausschatz der Deutschen. Eine Sammlung von über 1000 Liedern und Gesängen mit Singstimmen und Klavierbegleitung. Leipzig, Litterarisches Verlags-Haus.
!!!page: 758
!!!URL-scan: https://www.digitale-sammlungen.de/en/view/bsb11144622?page=638
!!!ENC: Anna Maria Matuszewska
!!!EEV: 2024/08/08
*-	*-